icons/family_planning.svg

<svg width="48" height="48" viewBox="0 0 48 48" fill="none" xmlns="http://www.w3.org/2000/svg">
<path d="M15 12C15.5523 12 16 11.5523 16 11C16 10.4477 15.5523 10 15 10C14.4477 10 14 10.4477 14 11C14 11.5523 14.4477 12 15 12Z" fill="black"/>
<path d="M12 11C12 11.5523 11.5523 12 11 12C10.4477 12 10 11.5523 10 11C10 10.4477 10.4477 10 11 10C11.5523 10 12 10.4477 12 11Z" fill="black"/>
<path d="M15 16C15.5523 16 16 15.5523 16 15C16 14.4477 15.5523 14 15 14C14.4477 14 14 14.4477 14 15C14 15.5523 14.4477 16 15 16Z" fill="black"/>
<path d="M12 15C12 15.5523 11.5523 16 11 16C10.4477 16 10 15.5523 10 15C10 14.4477 10.4477 14 11 14C11.5523 14 12 14.4477 12 15Z" fill="black"/>
<path d="M19 12C19.5523 12 20 11.5523 20 11C20 10.4477 19.5523 10 19 10C18.4477 10 18 10.4477 18 11C18 11.5523 18.4477 12 19 12Z" fill="black"/>
<path d="M20 15C20 15.5523 19.5523 16 19 16C18.4477 16 18 15.5523 18 15C18 14.4477 18.4477 14 19 14C19.5523 14 20 14.4477 20 15Z" fill="black"/>
<path d="M23 12C23.5523 12 24 11.5523 24 11C24 10.4477 23.5523 10 23 10C22.4477 10 22 10.4477 22 11C22 11.5523 22.4477 12 23 12Z" fill="black"/>
<path d="M24 15C24 15.5523 23.5523 16 23 16C22.4477 16 22 15.5523 22 15C22 14.4477 22.4477 14 23 14C23.5523 14 24 14.4477 24 15Z" fill="black"/>
<path fill-rule="evenodd" clip-rule="evenodd" d="M6 8C6 6.89543 6.89543 6 8 6H26C27.1046 6 28 6.89543 28 8V18C28 19.1046 27.1046 20 26 20H8C6.89543 20 6 19.1046 6 18V8ZM8 8H26V18H8L8 8Z" fill="black"/>
<path fill-rule="evenodd" clip-rule="evenodd" d="M28 22V40H27C26.4477 40 26 40.4477 26 41C26 41.5523 26.4477 42 27 42H41C41.5523 42 42 41.5523 42 41C42 40.4477 41.5523 40 41 40H40V22C40 19.7792 38.7934 17.8401 37 16.8027V16C37 14.3431 35.6569 13 34 13C32.3431 13 31 14.3431 31 16V16.8027C29.2066 17.8401 28 19.7792 28 22ZM33 17.9563L32.0015 18.5339C30.8006 19.2285 30 20.522 30 22V40H38V22C38 20.522 37.1994 19.2285 35.9985 18.5339L35 17.9563V16C35 15.4477 34.5523 15 34 15C33.4477 15 33 15.4477 33 16V17.9563Z" fill="black"/>
<path fill-rule="evenodd" clip-rule="evenodd" d="M13 27.7778C13 26.9362 13.6579 26.2311 14.5416 26.0469L13.6121 24.1648L6.47911 25.9702L6 24.0299L13.133 22.2245C14.0312 21.9971 14.9649 22.4319 15.3789 23.2703L16 24.528L16.6211 23.2703C17.0351 22.4319 17.9688 21.9971 18.867 22.2245L26 24.0299L25.5209 25.9702L18.3879 24.1648L17.4584 26.0469C18.3421 26.2311 19 26.9362 19 27.7778V38.2222C19 39.2041 18.1046 40 17 40V42H15V40C13.8954 40 13 39.2041 13 38.2222V27.7778ZM15 38.2222V27.7778H17V38.2222H15Z" fill="black"/>
</svg>

<svg
  xmlns="http://www.w3.org/2000/svg"
  width="24"
  height="24"
  viewBox="0 0 24 24"
  fill="none"
  stroke="currentColor"
  stroke-width="2"
  stroke-linecap="round"
  stroke-linejoin="round"
>
  <path d="M15 12a1 1 0 1 0 0-2 1 1 0 0 0 0 2" />
  <path d="M12 11a1 1 0 1 1-2 0 1 1 0 0 1 2 0" />
  <path d="M15 16a1 1 0 1 0 0-2 1 1 0 0 0 0 2" />
  <path d="M12 15a1 1 0 1 1-2 0 1 1 0 0 1 2 0" />
  <path d="M19 12a1 1 0 1 0 0-2 1 1 0 0 0 0 2" />
  <path d="M20 15a1 1 0 1 1-2 0 1 1 0 0 1 2 0" />
  <path d="M23 12a1 1 0 1 0 0-2 1 1 0 0 0 0 2" />
  <path d="M24 15a1 1 0 1 1-2 0 1 1 0 0 1 2 0" />
  <path
    fill-rule="evenodd"
    d="M6 8a2 2 0 0 1 2-2h18a2 2 0 0 1 2 2v10a2 2 0 0 1-2 2H8a2 2 0 0 1-2-2zm2 0h18v10H8z"
    clip-rule="evenodd"
  />
  <path
    fill-rule="evenodd"
    d="M28 22v18h-1a1 1 0 1 0 0 2h14a1 1 0 1 0 0-2h-1V22c0-2.22-1.207-4.16-3-5.197V16a3 3 0 1 0-6 0v.803A6 6 0 0 0 28 22m5-4.044-.998.578A4 4 0 0 0 30 22v18h8V22c0-1.478-.8-2.771-2.001-3.466L35 17.956V16a1 1 0 1 0-2 0z"
    clip-rule="evenodd"
  />
  <path
    fill-rule="evenodd"
    d="M13 27.778c0-.842.658-1.547 1.542-1.731l-.93-1.882L6.48 25.97 6 24.03l7.133-1.806a1.97 1.97 0 0 1 2.246 1.046L16 24.528l.621-1.258a1.97 1.97 0 0 1 2.246-1.046L26 24.03l-.48 1.94-7.132-1.805-.93 1.882c.884.184 1.542.89 1.542 1.73v10.445c0 .982-.895 1.778-2 1.778v2h-2v-2c-1.105 0-2-.796-2-1.778zm2 10.444V27.778h2v10.444z"
    clip-rule="evenodd"
  />
</svg>
